X: 8317
T: Corryvreckan
R: reel
M: 4/4
K: Bminor
|:fB B/B/B Bcde|f2 df edcd|eA A/A/A cBcd|ecfe cBce|
fB B/B/B Bcde|faaf edcd|ec c/c/c c2 cd|ecaf ecBA:|
|:Bf f/f/f effd|f2 df edcd|ec c/c/c ecce|eaac e2 dc|
Bf f/f/f effd|f2 df edcd|ea a/a/a e2 dc|B/c/d ec cB B2:|

